icon-svg/heated-maiden.svg

<svg xmlns="http://www.w3.org/2000/svg" viewBox="0 0 24 24"><path fill="#44739e" d="M11.577 20.104v.187l.919.155.612-.352v-.287l-.924-.126Zm1.265-17.133v-.542l-.704-.133-.494.009v.542l.478.012Zm-2.919-.952a.2.2 0 0 0-.2.2V21.8a.2.2 0 0 0 .4 0V2.22a.2.2 0 0 0-.2-.201m1.565.467-1.209-.054v.225l1.209.038Zm2.86 16.479v-.105a.03.03 0 0 0-.017-.03.03.03 0 0 0-.017 0h-.017l-1.359.8.263.035 1.13-.665a.034.034 0 0 0 .017-.035m-4.069 2.22v.202l1.525-.9-.26-.044ZM16.387 2h.743v19.278h-.743ZM8.63 19.331a.13.13 0 0 0-.084.031.13.13 0 0 0-.043.1v.069c0 .029.005.033.03.042a1 1 0 0 0 .212.05l.822.105v-.276l-.921-.116Zm3.205.403-1.556-.196v.277l1.217.155Zm1.429.45-.017.01 3.023.386v-.286l-3.006-.379ZM17.999 4.6v-.334a.03.03 0 0 0-.024-.027l-.289-.04h-.435v.442l.721-.011a.03.03 0 0 0 .027-.03m-4.024-.392a.02.02 0 0 0-.007.02l.018.41a.03.03 0 0 0 .024.026l.229.021 2.031-.03V4.2h-2.271a.03.03 0 0 0-.024.008m-.101 12.067.018.281a.1.1 0 0 0 .09.09l.221.015a.1.1 0 0 0 .046-.009l2.021-.912v-.553l-2.338.993a.1.1 0 0 0-.058.095m3.991-1.752h-.01a.1.1 0 0 0-.038.008l-.57.242v.527l.765-.345a.1.1 0 0 0 .056-.088v-.234a.1.1 0 0 0-.086-.1Zm-3.983-4.142v.356a.08.08 0 0 0 .05.071l.123.043a.07.07 0 0 0 .043 0l2.172-.551v-.543l-2.331.552a.074.074 0 0 0-.057.072m4.144-.948-.227-.033h-.027l-.523.123v.529l.787-.2a.075.075 0 0 0 .057-.073v-.272a.075.075 0 0 0-.067-.074M8.267 2.6a.13.13 0 0 0-.029.1l.01.068c0 .029.009.032.036.038a1 1 0 0 0 .215.014l1.068-.02v-.272l-1.206.022a.13.13 0 0 0-.094.05m4.731.144 3.272-.055v-.284l-3.272.06Zm-2.719.03v.016l.325-.006Zm-3.424 12.72a.12.12 0 0 0 .112.128l2.6.187v-.241l-2.583-.186a.12.12 0 0 0-.129.112m7.032.579.389-.166-4-.287v.241l3.543.255a.2.2 0 0 1 .068-.043m-6.033-.922a.116.116 0 0 0-.116.11v.006a.117.117 0 0 0 .11.124l1.72.11v-.241l-1.7-.109Zm7.091.472a.1.1 0 0 0-.065-.025l-4.6-.293v.241l4.216.268Zm.704-.299-5.37-.342v.241l4.877.31Zm-6.897-.439a.12.12 0 0 0-.077.03.11.11 0 0 0-.04.08V15a.117.117 0 0 0 .109.124l.823.053v-.241l-.807-.051Zm7.411.221-5.884-.375v.212l5.45.347Zm-6.752-.429a.12.12 0 0 0-.077.029.12.12 0 0 0-.039.08v.006a.12.12 0 0 0 .035.091l.238.015v-.212l-.148-.009Zm.868-.006 5.991.381v-.241l-5.991-.381Zm.382-.461a.11.11 0 0 0-.04.08v.01a.115.115 0 0 0 .1.121l5.554.354v-.24l-5.525-.351a.11.11 0 0 0-.089.026m6.586.384v.051l.104-.044Zm-3.482-4.198-3.486-.151v.24l3.486.152ZM6.504 10.2a.12.12 0 0 0 .115.125l2.948.128v-.24l-2.938-.127a.12.12 0 0 0-.125.114m7.408 0 .168-.04-3.8-.108v.159l3.488.151a.19.19 0 0 1 .144-.162M7.449 10a.12.12 0 0 0-.036.08l2.154.094v-.148l-2.034-.057a.12.12 0 0 0-.084.031m7.305-.004-4.475-.128v.14l3.948.112ZM8.34 9.93v.023l1.227.035v-.14L8.46 9.817a.116.116 0 0 0-.12.113m.743-.266a.11.11 0 0 0-.037.082v.006a.1.1 0 0 0 .007.043l.514.014v-.166l-.4-.011a.11.11 0 0 0-.084.032m6.445.149-5.249-.149v.165l4.623.132Zm.704-.167-5.953-.169v.148l5.396.153Zm-5.58-.283a.11.11 0 0 0-.037.082l5.655.16v-.12l-5.534-.157a.11.11 0 0 0-.084.035M6.448 4.521a.12.12 0 0 0-.034.086.12.12 0 0 0 .123.118l3.03-.06v-.241l-3.035.06a.12.12 0 0 0-.084.037m7.408-.181-3.577.07v.241l3.587-.071Zm-6.748.44a.12.12 0 0 0 .086.034l2.373-.047V4.7l-2.479.049a.1.1 0 0 0 .02.031m6.761-.137v-.024l-3.59.071v.063l3.6-.071a.1.1 0 0 1-.01-.039M6.036 15.587l.018.255a.156.156 0 0 0 .155.144h.148a.2.2 0 0 0 .048-.007l.9-.293-.345-.025a.15.15 0 0 1-.109-.055.15.15 0 0 1-.038-.115.16.16 0 0 1 .17-.148l.774.056a.16.16 0 0 1-.063-.134v-.007a.157.157 0 0 1 .165-.146l1.018.065h.009l-.149-.01A.156.156 0 0 1 8.599 15v-.007a.154.154 0 0 1 .165-.145l.515.032a.15.15 0 0 1-.021-.089v-.006a.156.156 0 0 1 .166-.146l.145.009v-.275l-3.424 1.054a.156.156 0 0 0-.109.16m4.546-1.293v-.006a.16.16 0 0 1 .053-.107.15.15 0 0 1 .113-.039l.367.023v-.025a.16.16 0 0 0-.1-.115l-.091-.036a.15.15 0 0 0-.1 0l-.542.167v.239l.348.022a.16.16 0 0 1-.048-.123m-.006-4.85a.157.157 0 0 1 .161-.152l.268.008v-.025a.047.047 0 0 0-.046-.046h-.219l-.461.07v.138l.3.008Zm-4.551.544v.331a.047.047 0 0 0 .046.046h.135l.3-.049a.159.159 0 0 1 .122-.269l.743.032a.15.15 0 0 1 .048-.106.16.16 0 0 1 .112-.043l.767.022v-.023a.154.154 0 0 1 .16-.151l.551.015a.2.2 0 0 1-.005-.042v-.006a.157.157 0 0 1 .161-.152l.4.011v-.195l-3.5.534a.045.045 0 0 0-.04.045m3.542-5.084v-.098l-2.163.043Zm-3.324-.085.889.023a.16.16 0 0 1-.089-.088l-.508.01a.16.16 0 0 1-.159-.156.16.16 0 0 1 .156-.163l1.62-.032-1.98-.106h-.237a.03.03 0 0 0-.028.027v.5a.03.03 0 0 0 .01.021.03.03 0 0 0 .022.007l.29-.04Zm4.585.108a.03.03 0 0 0 .008-.019v-.127l-.557.011v.13l.529.013a.03.03 0 0 0 .02-.008m-3.19 15.44h.861v-.728a.11.11 0 0 1-.073-.112v-.069a.2.2 0 0 1 .073-.158v-3.53l-.86-.061ZM8.499 2.9h-.02a1 1 0 0 1-.211-.021.106.106 0 0 1-.1-.1l-.01-.068a.2.2 0 0 1 .046-.162.2.2 0 0 1 .153-.072h.138v-.249h-.86v2.08l.86.046Zm-.861 2.032v4.692l.86-.131V4.954Zm0 5.478v4.475l.86-.265v-4.173Zm6.609-5.608v4.59l.32.009V4.798Zm0 6.134v3.429l.32.02v-3.53Zm.107 4.938.061-.026-.168-.011v.029Zm-.107-13.076h.32v1.284h-.32Zm.144 16.302-.144.085v.315a.16.16 0 0 0 .32 0v-2.863l-.27.122a.2.2 0 0 1-.05.015v1.951a.15.15 0 0 1 .142 0 .15.15 0 0 1 .076.131v.105a.15.15 0 0 1-.074.139m-.145-3.575h.321v.004h-.321Z"/></svg>

<?xml version="1.0" encoding="UTF-8"?>
<svg width="24px" fill="#44739e" height="24px" viewBox="0 0 24 24" version="1.1" xmlns="http://www.w3.org/2000/svg" xmlns:xlink="http://www.w3.org/1999/xlink">
            <path d="m 11.578,20.104 v 0.187 l 0.919,0.155 0.612,-0.352 V 19.807 L 12.185,19.681 Z M 12.843,2.971 V 2.429 L 12.139,2.296 11.645,2.305 v 0.542 l 0.478,0.012 z M 9.924,2.019 a 0.2,0.2 0 0 0 -0.2,0.2 V 21.8 a 0.2,0.2 0 0 0 0.4,0 V 2.22 A 0.2,0.2 0 0 0 9.924,2.019 Z M 11.489,2.486 10.28,2.432 v 0.225 l 1.209,0.038 z m 2.86,16.479 V 18.86 a 0.034,0.034 0 0 0 -0.017,-0.03 0.032,0.032 0 0 0 -0.017,0 0.038,0.038 0 0 0 -0.017,0 l -1.359,0.8 0.263,0.035 1.13,-0.665 a 0.034,0.034 0 0 0 0.017,-0.035 z m -4.069,2.22 v 0.202 l 1.525,-0.9 -0.26,-0.044 z M 16.388,2 h 0.743 V 21.278 H 16.388 Z M 8.631,19.331 a 0.132,0.132 0 0 0 -0.084,0.031 0.13,0.13 0 0 0 -0.043,0.1 v 0.069 c 0,0.029 0.005,0.033 0.03,0.042 a 0.972,0.972 0 0 0 0.212,0.05 l 0.822,0.105 V 19.452 L 8.647,19.336 Z m 3.205,0.403 -1.556,-0.196 v 0.277 l 1.217,0.155 z m 1.429,0.45 -0.017,0.01 3.023,0.386 V 20.294 L 13.265,19.915 Z M 18,4.6 V 4.266 A 0.028,0.028 0 0 0 17.976,4.239 L 17.687,4.199 H 17.252 V 4.641 L 17.973,4.63 A 0.028,0.028 0 0 0 18,4.6 Z M 13.976,4.208 a 0.024,0.024 0 0 0 -0.007,0.02 l 0.018,0.41 a 0.028,0.028 0 0 0 0.024,0.026 l 0.229,0.021 2.031,-0.03 V 4.2 H 14 a 0.025,0.025 0 0 0 -0.024,0.008 z m -0.101,12.067 0.018,0.281 a 0.1,0.1 0 0 0 0.09,0.09 l 0.221,0.015 a 0.09,0.09 0 0 0 0.046,-0.009 l 2.021,-0.912 v -0.553 l -2.338,0.993 a 0.1,0.1 0 0 0 -0.058,0.095 z m 3.991,-1.752 h -0.01 a 0.1,0.1 0 0 0 -0.038,0.008 l -0.57,0.242 V 15.3 l 0.765,-0.345 a 0.1,0.1 0 0 0 0.056,-0.088 v -0.234 a 0.1,0.1 0 0 0 -0.086,-0.1 z m -3.983,-4.142 v 0.356 a 0.076,0.076 0 0 0 0.05,0.071 l 0.123,0.043 a 0.07,0.07 0 0 0 0.043,0 L 16.271,10.3 V 9.757 l -2.331,0.552 a 0.074,0.074 0 0 0 -0.057,0.072 z M 18.027,9.433 17.8,9.4 H 17.79 17.773 L 17.25,9.523 v 0.529 l 0.787,-0.2 A 0.075,0.075 0 0 0 18.094,9.779 V 9.507 A 0.075,0.075 0 0 0 18.027,9.433 Z M 8.268,2.6 A 0.125,0.125 0 0 0 8.239,2.7 l 0.01,0.068 c 0,0.029 0.009,0.032 0.036,0.038 A 0.947,0.947 0 0 0 8.5,2.82 L 9.568,2.8 V 2.528 L 8.362,2.55 A 0.125,0.125 0 0 0 8.268,2.6 Z m 4.731,0.144 3.272,-0.055 V 2.405 l -3.272,0.06 z M 10.28,2.774 V 2.79 l 0.325,-0.006 z m -3.424,12.72 a 0.12,0.12 0 0 0 0.112,0.128 l 2.6,0.187 V 15.568 L 6.985,15.382 a 0.121,0.121 0 0 0 -0.129,0.112 z m 7.032,0.579 0.389,-0.166 -4,-0.287 v 0.241 l 3.543,0.255 a 0.2,0.2 0 0 1 0.068,-0.043 z M 7.855,15.151 a 0.116,0.116 0 0 0 -0.116,0.11 v 0.006 a 0.117,0.117 0 0 0 0.11,0.124 l 1.72,0.11 V 15.26 l -1.7,-0.109 z m 7.091,0.472 a 0.116,0.116 0 0 0 -0.065,-0.025 l -4.6,-0.293 v 0.241 l 4.216,0.268 z m 0.704,-0.299 -5.37,-0.342 v 0.241 l 4.877,0.31 z M 8.753,14.885 a 0.116,0.116 0 0 0 -0.077,0.03 0.113,0.113 0 0 0 -0.04,0.08 V 15 a 0.117,0.117 0 0 0 0.109,0.124 l 0.823,0.053 V 14.936 L 8.761,14.885 Z m 7.411,0.221 -5.884,-0.375 v 0.212 l 5.45,0.347 z M 9.412,14.677 a 0.117,0.117 0 0 0 -0.077,0.029 0.116,0.116 0 0 0 -0.039,0.08 v 0.006 a 0.118,0.118 0 0 0 0.035,0.091 l 0.238,0.015 V 14.686 L 9.421,14.677 Z m 0.868,-0.006 5.991,0.381 V 14.811 L 10.28,14.43 Z m 0.382,-0.461 a 0.113,0.113 0 0 0 -0.04,0.08 v 0.01 a 0.115,0.115 0 0 0 0.1,0.121 l 5.554,0.354 v -0.24 l -5.525,-0.351 a 0.113,0.113 0 0 0 -0.089,0.026 z m 6.586,0.384 v 0.051 l 0.104,-0.044 z M 13.766,10.396 10.28,10.245 v 0.24 l 3.486,0.152 z M 6.505,10.2 a 0.12,0.12 0 0 0 0.115,0.125 l 2.948,0.128 v -0.24 L 6.63,10.086 A 0.121,0.121 0 0 0 6.505,10.2 Z m 7.408,0 0.168,-0.04 -3.8,-0.108 v 0.159 l 3.488,0.151 A 0.191,0.191 0 0 1 13.913,10.2 Z M 7.45,10 a 0.115,0.115 0 0 0 -0.036,0.08 l 2.154,0.094 V 10.026 L 7.534,9.969 A 0.118,0.118 0 0 0 7.45,10 Z M 14.755,9.996 10.28,9.868 v 0.14 l 3.948,0.112 z M 8.341,9.93 v 0.007 c 0,0.005 0,0.011 0,0.016 L 9.568,9.988 V 9.848 L 8.461,9.817 A 0.116,0.116 0 0 0 8.341,9.93 Z M 9.084,9.664 A 0.114,0.114 0 0 0 9.047,9.746 V 9.752 A 0.125,0.125 0 0 0 9.054,9.795 L 9.568,9.809 V 9.643 L 9.168,9.632 A 0.111,0.111 0 0 0 9.084,9.664 Z M 15.529,9.813 10.28,9.664 v 0.165 l 4.623,0.132 z M 16.233,9.646 10.28,9.477 v 0.148 l 5.396,0.153 z m -5.58,-0.283 a 0.114,0.114 0 0 0 -0.037,0.082 v 0 l 5.655,0.16 V 9.485 L 10.737,9.328 A 0.114,0.114 0 0 0 10.653,9.363 Z M 6.449,4.521 A 0.12,0.12 0 0 0 6.415,4.607 0.122,0.122 0 0 0 6.538,4.725 l 3.03,-0.06 V 4.424 L 6.533,4.484 A 0.121,0.121 0 0 0 6.449,4.521 Z M 13.857,4.34 10.28,4.41 V 4.651 L 13.867,4.58 Z M 7.109,4.78 A 0.118,0.118 0 0 0 7.195,4.814 L 9.568,4.767 V 4.7 L 7.089,4.749 A 0.105,0.105 0 0 0 7.109,4.78 Z M 13.87,4.643 V 4.619 L 10.28,4.69 v 0.063 l 3.6,-0.071 A 0.129,0.129 0 0 1 13.87,4.643 Z m -7.833,10.944 0.018,0.255 a 0.156,0.156 0 0 0 0.155,0.144 h 0.148 a 0.159,0.159 0 0 0 0.048,-0.007 l 0.9,-0.293 -0.345,-0.025 A 0.154,0.154 0 0 1 6.852,15.606 0.152,0.152 0 0 1 6.814,15.491 0.159,0.159 0 0 1 6.984,15.343 l 0.774,0.056 A 0.155,0.155 0 0 1 7.695,15.265 V 15.258 A 0.157,0.157 0 0 1 7.86,15.112 l 1.018,0.065 H 8.887 L 8.738,15.167 A 0.156,0.156 0 0 1 8.6,15 V 14.993 A 0.154,0.154 0 0 1 8.765,14.848 L 9.28,14.88 A 0.149,0.149 0 0 1 9.259,14.791 v -0.006 a 0.156,0.156 0 0 1 0.166,-0.146 l 0.145,0.009 v -0.275 l -3.424,1.054 a 0.156,0.156 0 0 0 -0.109,0.16 z m 4.546,-1.293 v -0.006 a 0.156,0.156 0 0 1 0.053,-0.107 0.152,0.152 0 0 1 0.113,-0.039 l 0.367,0.023 V 14.14 a 0.156,0.156 0 0 0 -0.1,-0.115 l -0.091,-0.036 a 0.152,0.152 0 0 0 -0.1,0 l -0.542,0.167 v 0.239 l 0.348,0.022 A 0.156,0.156 0 0 1 10.583,14.294 Z M 10.577,9.444 A 0.157,0.157 0 0 1 10.738,9.292 L 11.006,9.3 V 9.275 A 0.047,0.047 0 0 0 10.96,9.229 h -0.219 l -0.461,0.07 v 0.138 l 0.3,0.008 z M 6.026,9.988 v 0.331 a 0.047,0.047 0 0 0 0.046,0.046 h 0.135 l 0.3,-0.049 a 0.159,0.159 0 0 1 0.122,-0.269 l 0.743,0.032 A 0.15,0.15 0 0 1 7.42,9.973 0.155,0.155 0 0 1 7.532,9.93 l 0.767,0.022 c 0,-0.005 0,-0.011 0,-0.016 V 9.929 A 0.154,0.154 0 0 1 8.459,9.778 L 9.01,9.793 A 0.186,0.186 0 0 1 9.005,9.751 V 9.745 A 0.157,0.157 0 0 1 9.166,9.593 l 0.4,0.011 V 9.409 l -3.5,0.534 A 0.045,0.045 0 0 0 6.026,9.988 Z M 9.568,4.904 V 4.806 L 7.405,4.849 Z M 6.244,4.819 v 0 L 7.133,4.842 A 0.16,0.16 0 0 1 7.044,4.754 l -0.508,0.01 v 0 A 0.16,0.16 0 0 1 6.377,4.608 0.161,0.161 0 0 1 6.533,4.445 L 8.153,4.413 6.173,4.307 H 5.936 A 0.028,0.028 0 0 0 5.908,4.334 v 0.5 a 0.026,0.026 0 0 0 0.01,0.021 0.029,0.029 0 0 0 0.022,0.007 l 0.29,-0.04 z m 4.585,0.108 A 0.027,0.027 0 0 0 10.837,4.908 V 4.781 L 10.28,4.792 v 0.13 l 0.529,0.013 a 0.026,0.026 0 0 0 0.02,-0.008 z m -3.19,15.44 H 8.5 V 19.639 A 0.107,0.107 0 0 1 8.427,19.527 V 19.458 A 0.206,0.206 0 0 1 8.5,19.3 v 0 -3.53 L 7.64,15.709 Z M 8.5,2.9 H 8.48 A 0.973,0.973 0 0 1 8.269,2.879 0.106,0.106 0 0 1 8.169,2.779 L 8.159,2.711 A 0.2,0.2 0 0 1 8.205,2.549 0.206,0.206 0 0 1 8.358,2.477 H 8.496 V 2.228 h -0.86 v 2.08 l 0.86,0.046 z M 7.639,4.932 V 9.624 L 8.499,9.493 V 4.954 Z m 0,5.478 v 4.475 l 0.86,-0.265 v -4.173 z m 6.609,-5.608 v 4.59 l 0.32,0.009 V 4.798 Z m 0,6.134 v 3.429 l 0.32,0.02 v -3.53 z m 0.107,4.938 0.061,-0.026 -0.168,-0.011 v 0.029 z M 14.248,2.7980001 h 0.32 v 1.284 h -0.32 z M 14.392,19.1 14.248,19.185 V 19.5 a 0.16,0.16 0 0 0 0.32,0 v -2.863 l -0.27,0.122 a 0.221,0.221 0 0 1 -0.05,0.015 v 1.951 a 0.146,0.146 0 0 1 0.142,0 0.148,0.148 0 0 1 0.076,0.131 v 0.105 A 0.151,0.151 0 0 1 14.392,19.1 Z m -0.145,-3.575 h 0.321 v 0.004 h -0.321 z"/>

</svg>
